src/cards/hearts_7.svg

<svg version="1.1" id="Layer_1" xmlns="http://www.w3.org/2000/svg" xmlns:xlink="http://www.w3.org/1999/xlink" x="0px" y="0px"
	 width="100%" viewBox="0 0 336 496" enable-background="new 0 0 336 496" xml:space="preserve">
<path fill="currentColor" opacity="1.000000" stroke="none" 
	d="
M244.264267,441.939789 
	C242.726379,440.661316 241.479385,439.596771 240.400787,438.675964 
	C238.769653,438.754791 238.097580,439.799011 237.248398,440.557465 
	C230.126419,446.919037 220.593979,447.743744 212.868362,442.658020 
	C205.615570,437.883575 202.609650,428.584106 205.383224,419.659515 
	C206.797119,415.109955 209.207291,411.130737 212.529648,407.796539 
	C216.283661,404.029144 220.140884,400.334991 224.219696,396.927948 
	C229.817596,392.252075 235.444061,387.646179 239.816681,380.765625 
	C248.175781,392.444672 260.324554,399.079041 269.045258,409.362946 
	C274.337097,415.603394 276.272736,422.746063 275.244263,430.719604 
	C273.778717,442.081696 259.710083,449.210175 248.466888,444.345154 
	C247.102386,443.754700 245.856201,442.890839 244.264267,441.939789 
z"/>
<path fill="currentColor" opacity="1.000000" stroke="none" 
	d="
M71.445526,441.676117 
	C63.449127,433.864227 62.222775,423.812805 67.808296,414.107941 
	C70.417427,409.574554 74.078133,405.949890 77.834335,402.402588 
	C85.158852,395.485504 94.006142,390.200989 99.868919,380.751251 
	C107.766396,392.041412 119.195854,398.460266 127.766647,407.941711 
	C134.100342,414.948456 137.215759,423.001709 134.834824,432.239563 
	C131.489746,445.218140 114.824615,450.183929 104.075462,441.742889 
	C102.782310,440.727386 101.576302,439.600952 100.056374,438.289978 
	C91.468498,446.425018 82.136337,448.896515 71.445526,441.676117 
z"/>
<path fill="currentColor" opacity="1.000000" stroke="none" 
	d="
M105.250259,62.998920 
	C117.266624,56.442764 129.917938,60.180332 134.260483,71.705467 
	C136.628357,77.989861 136.033249,84.475899 132.708023,90.498734 
	C130.517639,94.466095 127.713409,97.991203 124.425659,101.085182 
	C116.352394,108.682648 106.937111,114.819244 99.962379,124.463387 
	C92.029480,113.378708 80.624619,106.858917 72.186836,97.222527 
	C67.936134,92.368004 64.908173,87.032326 64.605751,80.286819 
	C64.209656,71.451759 67.717300,65.034119 75.720299,61.418865 
	C83.659508,57.832424 90.975204,59.409592 97.484062,65.070198 
	C98.229782,65.718735 98.956635,66.388969 99.709435,67.064598 
	C102.007935,66.385071 103.115608,64.301170 105.250259,62.998920 
z"/>
<path fill="currentColor" opacity="1.000000" stroke="none" 
	d="
M91.809418,223.816849 
	C95.190193,225.112656 97.140091,227.803635 99.686562,229.342804 
	C101.246574,229.360794 101.902000,228.271530 102.754890,227.526459 
	C110.133087,221.081055 119.639023,220.336838 127.628082,225.596848 
	C134.467392,230.099838 137.284683,239.501694 134.606720,248.335815 
	C132.268753,256.048431 126.826424,261.447388 121.088844,266.546265 
	C114.014542,272.833069 106.244385,278.358307 100.062439,286.749146 
	C91.246399,274.594574 77.613884,268.027435 69.229988,256.038116 
	C60.766048,243.934402 63.579220,229.527634 75.428482,223.999420 
	C80.669212,221.554398 86.066269,221.692581 91.809418,223.816849 
z"/>
<path fill="currentColor" opacity="1.000000" stroke="none" 
	d="
M170.019287,149.331070 
	C176.712463,143.371368 183.979630,140.344131 192.689758,143.141098 
	C203.900421,146.740997 208.743835,159.447647 203.575821,171.168671 
	C200.951401,177.120834 196.539734,181.669312 191.803207,185.892761 
	C184.494522,192.409744 176.440002,198.114227 170.024246,206.755280 
	C161.272171,194.475601 147.594116,187.960724 139.195847,175.954422 
	C130.431564,163.424911 134.004486,148.008179 146.895233,143.392410 
	C155.742538,140.224487 163.184906,143.160736 170.019287,149.331070 
z"/>
<path fill="currentColor" opacity="1.000000" stroke="none" 
	d="
M269.163391,226.741730 
	C276.714752,234.792053 277.621490,245.042450 271.868103,254.458511 
	C268.703522,259.637726 264.398376,263.819031 259.805145,267.661011 
	C252.944138,273.399841 245.916122,278.937164 240.031067,286.696106 
	C231.959076,275.563202 220.076263,269.172333 211.601898,259.153107 
	C207.556870,254.370712 204.780655,249.101761 204.580643,242.533554 
	C204.318970,233.941772 207.615952,227.538849 215.427109,224.053436 
	C223.220001,220.576172 230.663437,221.629074 237.224762,227.381500 
	C238.077835,228.129425 238.990662,228.809204 240.119873,229.716690 
	C248.925720,221.137619 258.462738,219.366470 269.163391,226.741730 
z"/>
<path fill="currentColor" opacity="1.000000" stroke="none" 
	d="
M227.441040,59.867081 
	C232.525269,61.088387 236.406723,63.553692 239.805374,67.351974 
	C244.045334,63.917927 248.055130,60.371174 253.617447,59.735870 
	C268.582031,58.026688 279.241669,71.414238 274.561523,86.110474 
	C272.634888,92.160385 268.709198,96.897766 264.244843,101.201851 
	C256.379089,108.785225 246.831039,114.559052 240.033813,124.274017 
	C231.563370,112.499069 218.815292,105.779404 210.097092,94.798546 
	C205.459595,88.957497 203.835159,82.379364 204.766724,75.142715 
	C205.866928,66.596031 214.966293,58.080627 227.441040,59.867081 
z"/>
<path fill="currentColor" opacity="1.000000" stroke="none" 
	d="
M312.009766,396.205383 
	C314.939178,398.901611 317.660706,401.328217 320.355743,403.783844 
	C323.056824,406.244965 325.770264,408.692230 327.146606,412.234619 
	C328.848206,416.614288 328.815277,420.828125 325.220886,424.190186 
	C321.600464,427.576569 317.275452,428.408447 312.900085,425.674377 
	C310.708923,424.305115 309.038055,424.592072 306.962463,425.761169 
	C302.521484,428.262665 298.252686,427.722565 294.701294,424.055908 
	C291.145966,420.385162 291.054016,416.089844 293.205780,411.630615 
	C294.452667,409.046600 296.325623,406.961060 298.416382,405.032745 
	C301.703827,402.000580 305.489594,399.499481 308.230988,395.885529 
	C309.467804,394.255035 310.631348,394.375854 312.009766,396.205383 
z"/>
<path fill="currentColor" opacity="1.000000" stroke="none" 
	d="
M29.329529,81.118805 
	C32.530666,80.695503 34.698578,78.439301 38.007664,78.570259 
	C45.309216,78.859200 49.884003,84.919769 47.606506,91.893425 
	C46.650448,94.820862 44.800419,97.111275 42.695473,99.294281 
	C38.784569,103.350250 33.900852,106.324776 30.185553,111.133240 
	C25.151054,106.428711 20.277220,101.994148 15.555026,97.403595 
	C13.621659,95.524124 12.448492,93.049545 11.989393,90.379807 
	C11.241916,86.033081 12.610888,82.313522 16.422094,80.068695 
	C20.663761,77.570312 24.995573,78.028534 29.329529,81.118805 
z"/>
<path fill="currentColor" opacity="1.000000" stroke="none" 
	d="
M295.619202,480.705811 
	C301.555878,471.700134 305.998322,462.498993 306.777954,451.904724 
	C307.079651,447.805298 309.334259,446.606140 313.169647,447.036774 
	C317.356384,447.506866 317.031647,449.885651 316.524384,453.084534 
	C314.856354,463.604309 309.488556,472.291992 303.332184,480.657501 
	C310.533875,483.428955 314.901550,482.060455 318.100952,475.908600 
	C319.110046,473.968323 320.526611,473.210693 322.513885,473.531067 
	C324.594604,473.866577 324.218567,475.657898 324.311066,477.096252 
	C325.004578,487.882172 324.578217,488.341827 313.918121,488.341888 
	C309.097992,488.341919 304.275421,488.426971 299.458466,488.300781 
	C294.722321,488.176727 293.442139,485.760040 295.619202,480.705811 
z"/>
<path fill="currentColor" opacity="1.000000" stroke="none" 
	d="
M33.045872,54.771805 
	C31.763498,59.899059 28.023172,58.453403 25.222380,57.965977 
	C22.133844,57.428474 23.299419,54.718018 23.581623,52.642899 
	C24.778770,43.839970 28.723898,36.239799 33.751255,29.084206 
	C34.861271,27.504288 36.415916,26.153454 36.811974,24.104149 
	C28.132860,22.117329 25.977518,22.940155 21.579292,30.099081 
	C20.690378,31.545954 19.607841,32.305340 17.931801,32.100048 
	C15.918333,31.853428 15.811559,30.287212 15.736019,28.759741 
	C15.678573,27.598125 15.680457,26.432270 15.693119,25.268707 
	C15.779562,17.325361 16.290829,16.810223 24.119947,16.798992 
	C29.441238,16.791359 34.766178,16.676622 40.082821,16.834459 
	C45.263962,16.988268 47.113762,20.561117 44.229675,24.854731 
	C38.203396,33.826214 33.919918,43.416908 33.045872,54.771805 
z"/>
</svg>

<svg xmlns="http://www.w3.org/2000/svg" viewBox="0 0 336 496" xml:space="preserve"><path fill="currentColor" d="M244.264 441.94a365.186 365.186 0 0 1-3.863-3.264c-1.631.079-2.303 1.123-3.153 1.881-7.122 6.362-16.654 7.187-24.38 2.101-7.252-4.774-10.258-14.074-7.485-22.998a28.69 28.69 0 0 1 7.147-11.863c3.754-3.768 7.61-7.462 11.69-10.87 5.598-4.675 11.224-9.28 15.597-16.161 8.359 11.679 20.508 18.313 29.228 28.597 5.292 6.24 7.228 13.383 6.2 21.357-1.466 11.362-15.535 18.49-26.778 13.625-1.365-.59-2.61-1.454-4.203-2.405zM71.446 441.676c-7.997-7.812-9.223-17.863-3.638-27.568 2.61-4.533 6.27-8.158 10.026-11.705 7.325-6.917 16.172-12.202 22.035-21.652 7.897 11.29 19.327 17.71 27.898 27.19 6.333 7.007 9.449 15.06 7.068 24.299-3.345 12.978-20.01 17.944-30.76 9.503-1.293-1.016-2.499-2.142-4.019-3.453-8.588 8.135-17.92 10.607-28.61 3.386zM105.25 62.999c12.017-6.556 24.668-2.819 29.01 8.706 2.368 6.285 1.773 12.77-1.552 18.794-2.19 3.967-4.995 7.492-8.282 10.586-8.074 7.598-17.489 13.734-24.464 23.378-7.933-11.084-19.337-17.604-27.775-27.24-4.25-4.855-7.279-10.19-7.581-16.936-.396-8.835 3.111-15.253 11.114-18.868 7.94-3.587 15.255-2.01 21.764 3.651.746.649 1.473 1.319 2.225 1.995 2.299-.68 3.407-2.764 5.541-4.066zM91.81 223.817c3.38 1.296 5.33 3.987 7.877 5.526 1.56.018 2.215-1.071 3.068-1.817 7.378-6.445 16.884-7.19 24.873-1.93 6.84 4.504 9.657 13.906 6.979 22.74-2.338 7.712-7.78 13.111-13.518 18.21-7.074 6.287-14.845 11.812-21.027 20.203-8.816-12.154-22.448-18.722-30.832-30.71-8.464-12.105-5.65-26.511 6.198-32.04 5.241-2.445 10.638-2.306 16.381-.182zM170.02 149.331c6.692-5.96 13.96-8.987 22.67-6.19 11.21 3.6 16.054 16.307 10.886 28.028-2.625 5.952-7.036 10.5-11.773 14.724-7.308 6.517-15.363 12.221-21.779 20.862-8.752-12.28-22.43-18.794-30.828-30.8-8.764-12.53-5.192-27.947 7.7-32.563 8.847-3.168 16.289-.231 23.123 5.94zM269.163 226.742c7.552 8.05 8.458 18.3 2.705 27.717-3.164 5.179-7.47 9.36-12.063 13.202-6.86 5.739-13.889 11.276-19.774 19.035-8.072-11.133-19.955-17.524-28.43-27.543-4.044-4.782-6.82-10.051-7.02-16.62-.262-8.591 3.035-14.994 10.846-18.48 7.793-3.477 15.236-2.424 21.798 3.328.853.748 1.766 1.428 2.895 2.336 8.806-8.58 18.343-10.35 29.043-2.975zM227.441 59.867c5.084 1.221 8.966 3.687 12.364 7.485 4.24-3.434 8.25-6.98 13.812-7.616 14.965-1.71 25.625 11.678 20.945 26.374-1.927 6.05-5.853 10.788-10.317 15.092-7.866 7.583-17.414 13.357-24.211 23.072-8.47-11.775-21.219-18.495-29.937-29.475-4.637-5.842-6.262-12.42-5.33-19.656 1.1-8.547 10.2-17.062 22.674-15.276zM312.01 396.205c2.93 2.697 5.65 5.123 8.346 7.579 2.7 2.461 5.414 4.908 6.79 8.45 1.702 4.38 1.67 8.594-1.925 11.956-3.62 3.387-7.946 4.218-12.32 1.484-2.192-1.369-3.863-1.082-5.939.087-4.44 2.502-8.71 1.962-12.26-1.705-3.556-3.67-3.648-7.966-1.496-12.425 1.247-2.584 3.12-4.67 5.21-6.598 3.288-3.032 7.074-5.534 9.815-9.147 1.237-1.631 2.4-1.51 3.779.32zM29.33 81.119c3.2-.423 5.369-2.68 8.678-2.549 7.301.29 11.876 6.35 9.599 13.323-.957 2.928-2.807 5.218-4.912 7.401-3.91 4.056-8.794 7.03-12.51 11.84-5.034-4.705-9.908-9.14-14.63-13.73-1.933-1.88-3.107-4.354-3.566-7.024-.747-4.347.622-8.066 4.433-10.311 4.242-2.499 8.574-2.04 12.908 1.05zM295.62 480.706c5.936-9.006 10.378-18.207 11.158-28.801.302-4.1 2.556-5.299 6.392-4.868 4.186.47 3.862 2.849 3.354 6.048-1.668 10.52-7.035 19.207-13.192 27.573 7.202 2.771 11.57 1.402 14.769-4.75 1.009-1.94 2.426-2.697 4.413-2.377 2.08.336 1.705 2.127 1.797 3.565.694 10.786.267 11.246-10.393 11.246-4.82 0-9.643.085-14.46-.041-4.736-.124-6.016-2.541-3.839-7.595zM33.046 54.772c-1.283 5.127-5.023 3.681-7.824 3.194-3.088-.538-1.923-3.248-1.64-5.323 1.197-8.803 5.142-16.403 10.17-23.559 1.11-1.58 2.664-2.93 3.06-4.98-8.68-1.987-10.834-1.164-15.233 5.995-.889 1.447-1.971 2.206-3.647 2.001-2.014-.247-2.12-1.813-2.196-3.34a57.952 57.952 0 0 1-.043-3.491c.087-7.944.598-8.459 8.427-8.47 5.321-.008 10.646-.122 15.963.035 5.181.154 7.03 3.727 4.147 8.02-6.027 8.972-10.31 18.563-11.184 29.918z"/></svg>
